svg/UnitedNationsOCHA-Humanitarian/product_type_table_icon.svg

<svg xmlns="http://www.w3.org/2000/svg" viewBox="0 0 32 32" enable-background="new 0 0 32 32"><path fill="#407cca" d="m4 4v24h24v-24h-24m22.359 9.519h-6.388v-3.406h.575 5.813v3.406m-6.88 4.475h-6.959v-3.985h6.959v3.985m-6.958-4.475v-3.406h.573 5.813.573v3.406h-6.959m-1.068-3.407h.575v3.406h-6.387v-3.406h5.812m.575 3.897v3.985h-6.387v-3.985h6.387m-6.387 4.475h6.388v3.979h-6.388v-3.979m6.88 0h6.959v3.979h-6.959v-3.979m7.451 0h6.388v3.979h-6.388v-3.979m0-.49v-3.985h6.388v3.985h-6.388m-14.331 8.365v-3.403h6.388v3.403h-6.388m6.88 0v-3.403h6.959v3.403h-6.959m7.451-3.403h6.388v3.403h-6.388v-3.403"/></svg>

<?xml version="1.0" encoding="utf-8"?>
<!-- Generator: Adobe Illustrator 16.0.3, SVG Export Plug-In . SVG Version: 6.00 Build 0)  -->
<!DOCTYPE svg PUBLIC "-//W3C//DTD SVG 1.1//EN" "http://www.w3.org/Graphics/SVG/1.1/DTD/svg11.dtd">
<svg version="1.1" id="Layer_1" xmlns="http://www.w3.org/2000/svg" xmlns:xlink="http://www.w3.org/1999/xlink" x="0px" y="0px"
	 width="32px" height="32px" viewBox="0 0 32 32" enable-background="new 0 0 32 32" xml:space="preserve">
<path fill="#407CCA" d="M4,4v24h24V4H4z M26.359,13.519h-6.388v-3.406h0.575h5.813V13.519z M19.479,17.994h-6.959v-3.985h6.959
	V17.994z M12.521,13.519v-3.406h0.573h5.813h0.573v3.406H12.521z M11.453,10.112h0.575v3.406H5.641v-3.406H11.453z M12.028,14.009
	v3.985H5.641v-3.985H12.028z M5.641,18.484h6.388v3.979H5.641V18.484z M12.521,18.484h6.959v3.979h-6.959V18.484z M19.972,18.484
	h6.388v3.979h-6.388V18.484z M19.972,17.994v-3.985h6.388v3.985H19.972z M5.641,26.359v-3.403h6.388v3.403H5.641z M12.521,26.359
	v-3.403h6.959v3.403H12.521z M19.972,22.956h6.388v3.403h-6.388V22.956z"/>
</svg>
